X:3
%%pagewidth 8.5in
%%vocalfont Baskerville10Pro 11.5
%%score 1 2
T:Sumer Is Icumen In
M:6/8
L:1/4
V:1 clef=treble
V:2 clef=bass
K:F
[V:1]
f e/ d e/ & A3/ B3/ | f f/ (e/d/c/) & A3 | A A/ B G/ & F E/ D E/ | A3 & F F/ E/D/C/ | F A/ G B/ & A,3/ [C3/E3/] |
w: Summer* is a com-ing* in,* Loud-ly sing Cuc-koo; Groweth* seed, and
[V:2]
"_Drone Bass."F,,3- | F,,3 | F,,3- | F,,3 | F,,3- |
[V:1][FA] A/ G F/ & C3 | A c/ d d/ & F3/ [F3/B3/] | c3 & [F3/A3/] [E3/G3/] |f3/ d3/ & F3/ B3/ | f3 & A3 || (c A/) B G/ & F3/ E3/ | A c/ B A/ & F E/ D C/ |
w: bloweth* mead and springeth* wood a-new. Sing Cuc-koo! Ewe* Bleat-eth af-ter lamb, Low'th
[V:2]F,,3 | F,,3- | F,,3 | D3/ B,3/ & F,3 | C3 & F,3 || A,3/ G,3/ & F,,3- | (F,3/ F,3/) &  F,,3|
[V:1]F A/ G E/ & D C/ B,3/ | F3 & C C/ D B,/ | A A/ B G/ & C3/ E3/ | c c/ d e/ & F3/ B3/ | f e/ d e/ & A3/ B3/ |
w: af-ter calf the cow;  Bullock* start-eth, Buck to fern go'th, Mer-ry sing Cuc-
[V:2]D,/E,/F,/ G,3/& F,,3- |A, A,/ B, G,/ & F,,3| F,3/ G,3/ & F,,3- | A,3/ G,3/ & F,,3 | C3/ B, C/ & F,3- |
[V:1]f3 & B3/ A3/ | c3/ d3/ & A3/ B3/ | c3/ (B A/) & A3/ G F/ | F A/ B G/& x E/ D E/ | (A3/ B) c/ & F3 | A c/ G E/ & F C/ D B,/ | F3 & C3 ||
w:koo! Cuckoo!* Cuc-koo!* Well singst thou, Cuc-koo!* Nor cease thou e-ver now.
[V:2]D3/ C3/ & F,3 | F3/ F3/ &  F,3- | F3/ C C/ &  F,3 | D C/ B, C/&F,3- | C3 & F,3 | C A,/ B, G,/ & F,3/ F,3/ | A,3 & F,,3 | |

